X:87
T:Whirlwind Visit
R:reel
C:Paul S. Cranford
O:Cape Breton Island
S:http://www.cranfordpub.com
D:currently unrecorded
B:currently unpublished in book form
Z:psc, (re-formatted,updated 9/17/04)
N:
H:                                                        copyrights Cranford Publications, SOCAN
L:1/8
M:C|
Q:333
K:F#minor
AB|cF F/F/F {c}d2 Bd|cFdf cFAB|cF F/F/F {c}d2 Ac|BAGF EeBd|
cF F/F/F {c}d2 Bd|cFdf cFAB|cFdF eEGA|Fcag f2 :|
|:fg|acfa gceg|fecB cefg|af f/f/f g2 ed|cfeg f2 fg|
acfa g2 eg|fecB cFAB|cFdF eEGA|Fcag f2 :|
